shell/res/secondaryleftmenu/PrinterWhite.svg

<?xml version="1.0" encoding="utf-8"?>
<!-- Generator: Adobe Illustrator 24.0.2, SVG Export Plug-In . SVG Version: 6.00 Build 0)  -->
<!DOCTYPE svg PUBLIC "-//W3C//DTD SVG 1.1//EN" "http://www.w3.org/Graphics/SVG/1.1/DTD/svg11.dtd" [
	<!ENTITY ns_extend "http://ns.adobe.com/Extensibility/1.0/">
	<!ENTITY ns_ai "http://ns.adobe.com/AdobeIllustrator/10.0/">
	<!ENTITY ns_graphs "http://ns.adobe.com/Graphs/1.0/">
	<!ENTITY ns_vars "http://ns.adobe.com/Variables/1.0/">
	<!ENTITY ns_imrep "http://ns.adobe.com/ImageReplacement/1.0/">
	<!ENTITY ns_sfw "http://ns.adobe.com/SaveForWeb/1.0/">
	<!ENTITY ns_custom "http://ns.adobe.com/GenericCustomNamespace/1.0/">
	<!ENTITY ns_adobe_xpath "http://ns.adobe.com/XPath/1.0/">
]>
<svg version="1.1" id="图层_1" xmlns:x="&ns_extend;" xmlns:i="&ns_ai;" xmlns:graph="&ns_graphs;"
	 xmlns="http://www.w3.org/2000/svg" xmlns:xlink="http://www.w3.org/1999/xlink" x="0px" y="0px" viewBox="0 0 24 24"
	 enable-background="new 0 0 24 24" xml:space="preserve">
<metadata>
	<sfw  xmlns="&ns_sfw;">
		<slices></slices>
		<sliceSourceBounds  bottomLeftOrigin="true" height="1298" width="1504" x="-206" y="-620"></sliceSourceBounds>
	</sfw>
</metadata>
<polygon fill="#FFFFFF" points="7,2 7,4 7,10 17,10 17,4 17,2 "/>
<path fill="none" d="M7,22h10c0.6,0,1-0.4,1-1v-1H6v1C6,21.6,6.4,22,7,22z"/>
<path fill="#FFFFFF" d="M21,10h-2v2H5v-2H3c-1.1,0-2,0.9-2,2v6c0,1.1,0.9,2,2,2h1v-2c0-1.1,0.9-2,2-2h12c1.1,0,2,0.9,2,2v2h1
	c1.1,0,2-0.9,2-2v-6C23,10.9,22.1,10,21,10z M19,15h-2v-2h2V15z"/>
<path fill="#FFFFFF" d="M7,22h10c0.6,0,1-0.4,1-1v-1v-2H6v2v1C6,21.6,6.4,22,7,22z"/>
</svg>

<svg id="图层_1" data-name="图层 1" xmlns="http://www.w3.org/2000/svg" viewBox="0 0 24 24"><defs><style>.cls-1{fill:#fff;}.cls-2{fill:none;}</style></defs><title>printerWhite</title><polygon class="cls-1" points="7 2 7 4 7 10 17 10 17 4 17 2 7 2"/><path class="cls-2" d="M7,22H17a1,1,0,0,0,1-1V20H6v1A1,1,0,0,0,7,22Z"/><path class="cls-1" d="M21,10H19v2H5V10H3a2,2,0,0,0-2,2v6a2,2,0,0,0,2,2H4V18a2,2,0,0,1,2-2H18a2,2,0,0,1,2,2v2h1a2,2,0,0,0,2-2V12A2,2,0,0,0,21,10Zm-2,5H17V13h2Z"/><path class="cls-1" d="M7,22H17a1,1,0,0,0,1-1V18H6v3A1,1,0,0,0,7,22Z"/></svg>
